X:1
T:Free Gardeners', The
T:Free Gardeners', The
T:Alexander Walker
C:Alexander Walker
L:1/8
M:4/4
K:D
V:1 treble 
V:1
 (FG) | A3 F D2 DE | F>EDB, A,2 A,>B | D2 D>E F>DA>F | E2 E>E E2 (FG) | A3 F D2 DE | %6
 F>EDB, A,2 A,>B, | D>FA>d A>GE>C | D2 D2 D2 :: d>e | f3 e d2 (c>d) | A>BAF GFED | FAdF (BA)GF | %13
 E2 E>E E2 F>G | AFd>F B>AG>F | B>eg>e d>cB>A | f>A d>f a>fg>e | f2 d>d d2 d>e | f3 e d2 (c>d) | %19
 A>BAF GFED | FAdF (BA)GF | E2 E>E E2 F>G | %22

